X:44
T:Lo He Comes with Clouds
C:Massey
S:John Moore's Book 3
Z:Transcribed by Edmund Spriggs 05/2021
%%VWML: Moore1-4495-p35-0
F:https://www.vwml.org/record/Moore3/4495/p35
N:The title in the jpeg file is "So he comes with clouds descending".
N:The continues on page 36.
N:The manuscript lacks a time signature.
M:
L:1/4
V:1 clef=treble
V:2 clef=bass
K:D
[V:1]D2F2|A2F-F|d2(e>f/g//)|f>ed2|]
w:Lo he comes with_ clouds__de cending_
[V:2]D,2D,2|F,2D,2|B,2A,2|D2D,2|]
[V:1]B2(Ad)|G2F2|E2D2|A4|]
w:Once for_ favor'd_ sinners_ slain
[V:2]G,2F,2|E,2D,2|C,2B,,2|A,,4|]
[V:1]d2e2|f3d|(BA)(GF)|F2E2|]
w:Thousand_ thousands_ saints__ at tending_
[V:2]F,2A,2|D,3F,|(G,F,)(E,D,)|A,2A,,2|]
[V:1](F^G)(AB)|(cB)(ed)|c2B2|A4|]
w:Swell_ the_ tri_umph_ of his train
[V:2]D,B,,C,E,|(A,,B,,)(C,D,)|E,2E,2|A,,4|]
[V:1]"_P"d2(A>B)|(A>G)F2|f2e>d|(c>B)A2|]
w:Halle__lugah__Halle__lugah_
[V:2]D,2D,2|D,2D,2|D,2^G,2|A,2A,,2|]
[V:1]"_F"GABc|d3B/G/|F2E2|D4|]
w:Mortals___ catch this_ joyfull_ strain
[V:2]"_F"E,F,G,E,|D,E,F,G,|A,2A,,2|D,4|]

